X:42
T:Copshawholm Fair
Z:Jack Campin, http://www.campin.me.uk/
F:Jack Campin's Nine-Note Tunebook
% last edit 03-02-2013
B:Sheila Douglas, "The Sang's the Thing: Voices from Lowland Scotland"
M:3/4
L:1/8
Q:3/4=72
K:DMin
A2|A4 AA|D2 D2 DD|A2 A3  A|c4
GG|G4 GG|C4    CC|E4    EE|G4
c2|A4 AA|D2 D2 D2|A4    AA|d4
AA|A4 AG|G4    Ac|E3  D D2|D4|]


% == Scottish dance tunes ===================================================

